assets/images/benefit_3.svg

<svg width="53" height="58" viewBox="0 0 53 58" fill="none" xmlns="http://www.w3.org/2000/svg">
<path d="M38.1899 57.8C37.7849 57.71 37.3949 57.635 36.9899 57.545C32.4449 56.48 29.4149 52.34 29.6549 47.57C29.8799 43.145 33.4499 39.395 37.9499 38.795C45.1949 37.85 50.7899 45.095 48.0299 51.845C47.9849 51.965 47.9249 52.085 47.8649 52.205C47.6099 52.685 47.1749 52.85 46.7549 52.655C46.3049 52.46 46.1699 52.04 46.3349 51.515C46.5599 50.75 46.8599 49.985 46.9649 49.205C47.5199 45.125 44.6999 41.27 40.6499 40.52C36.5999 39.77 32.6099 42.275 31.5749 46.22C30.7199 49.46 32.0099 52.88 34.7699 54.74C37.5599 56.615 41.1449 56.54 43.8599 54.545C43.9499 54.485 44.0399 54.41 44.1299 54.35C44.5799 54.05 45.0449 54.095 45.3449 54.455C45.6449 54.83 45.5699 55.34 45.1499 55.685C43.8299 56.75 42.3149 57.395 40.6349 57.68C40.4849 57.71 40.3499 57.755 40.2149 57.785C39.5249 57.8 38.8649 57.8 38.1899 57.8Z" fill="#202020"/>
<path d="M4.39523 17.8101C4.39523 16.3401 4.39523 14.9451 4.39523 13.5651C4.39523 12.0351 4.39523 10.4901 4.39523 8.96014C4.39523 7.79014 4.93523 7.26514 6.12023 7.26514C7.47023 7.26514 8.82023 7.26514 10.1702 7.26514C11.2502 7.26514 11.8052 7.80514 11.8052 8.88514C11.8052 11.6301 11.8052 14.3901 11.8052 17.1351C11.8052 17.3301 11.8052 17.5401 11.8052 17.7801C13.5452 17.7801 15.2402 17.7801 17.0102 17.7801C17.0252 17.5851 17.0402 17.3901 17.0402 17.1951C17.0402 15.7401 17.0402 14.2701 17.0402 12.8151C17.0402 11.6301 17.5652 11.1051 18.7652 11.1051C20.0702 11.1051 21.3902 11.1051 22.6952 11.1051C23.9102 11.1051 24.4202 11.6151 24.4202 12.8601C24.4202 14.2851 24.4202 15.7101 24.4202 17.1201C24.4202 17.3301 24.4202 17.5251 24.4202 17.7651C24.5702 17.7801 24.6752 17.8101 24.7802 17.8101C25.9352 17.8851 26.6402 18.6051 26.6402 19.7601C26.6402 23.0301 26.6402 26.3151 26.6402 29.5851C26.6402 29.8101 26.6402 30.0351 26.6402 30.3051C27.6452 30.3051 28.6202 30.3051 29.6552 30.3051C29.6552 30.0651 29.6552 29.8401 29.6552 29.6301C29.6552 25.3251 29.6552 21.0201 29.6552 16.7151C29.6552 15.4401 30.1502 14.9601 31.4252 14.9451C32.7002 14.9451 33.9752 14.9451 35.2502 14.9451C36.5552 14.9451 37.0652 15.4551 37.0652 16.7451C37.0652 21.0351 37.0652 25.3101 37.0652 29.6001C37.0652 29.8251 37.0652 30.0501 37.0652 30.3051C38.8052 30.3051 40.4852 30.3051 42.2702 30.3051C42.2702 30.0951 42.2702 29.8701 42.2702 29.6601C42.2702 26.6301 42.2702 23.6001 42.2702 20.5701C42.2702 19.3101 42.7802 18.8151 44.0402 18.8151C45.3902 18.8151 46.7402 18.8151 48.0902 18.8151C49.1252 18.8151 49.6652 19.3701 49.6802 20.4201C49.6802 23.5101 49.6802 26.6001 49.6802 29.6901C49.6802 29.8851 49.6802 30.0951 49.6802 30.3651C50.3402 30.3651 50.9552 30.3651 51.5702 30.3651C51.7952 30.3651 52.0202 30.3651 52.2452 30.3801C52.6952 30.4401 52.9502 30.7101 52.9652 31.1601C52.9802 31.6101 52.7402 31.9101 52.3052 32.0001C52.0952 32.0451 51.8552 32.0301 51.6302 32.0301C43.5752 32.0301 35.5352 32.0301 27.4802 32.0301C27.2402 32.0301 27.0002 32.0301 26.6702 32.0301C26.6702 32.2851 26.6702 32.4951 26.6702 32.7201C26.6702 38.9451 26.6702 45.1851 26.6702 51.4101C26.6702 52.9851 26.0102 53.6601 24.4202 53.6601C17.3702 53.6601 10.3052 53.6601 3.25523 53.6601C1.69523 53.6601 1.02023 52.9851 1.02023 51.4551C1.02023 44.5251 1.02023 37.6101 1.02023 30.6801C1.02023 30.5151 1.02023 30.3351 1.03523 30.1701C1.09523 29.7501 1.35023 29.4951 1.77023 29.4651C2.22023 29.4351 2.53523 29.6451 2.64023 30.0801C2.70023 30.3201 2.68523 30.5601 2.68523 30.8001C2.68523 37.6101 2.68523 44.4201 2.68523 51.2301C2.68523 51.9651 2.68523 51.9651 3.40523 51.9651C10.3502 51.9651 17.2952 51.9651 24.2402 51.9651C24.9602 51.9651 24.9602 51.9651 24.9602 51.2301C24.9602 40.8801 24.9602 30.5301 24.9602 20.1801C24.9602 19.4601 24.9602 19.4601 24.2252 19.4601C17.2952 19.4601 10.3802 19.4601 3.45023 19.4601C2.68523 19.4601 2.68523 19.4601 2.68523 20.2101C2.68523 22.1151 2.68523 24.0351 2.68523 25.9401C2.68523 26.1651 2.68523 26.3901 2.61023 26.6001C2.49023 27.0201 2.16023 27.2001 1.74023 27.1551C1.35023 27.1251 1.08023 26.8851 1.02023 26.4951C0.990234 26.3301 0.990234 26.1651 0.990234 25.9851C0.990234 23.9601 0.990234 21.9501 0.990234 19.9251C0.990234 18.4851 1.69523 17.7801 3.12023 17.7801C3.51023 17.8101 3.91523 17.8101 4.39523 17.8101ZM35.2952 30.3351C35.2952 25.7451 35.2952 21.2151 35.2952 16.6701C33.9452 16.6701 32.6552 16.6701 31.3502 16.6701C31.3502 21.2451 31.3502 25.7751 31.3502 30.3351C32.6852 30.3351 33.9752 30.3351 35.2952 30.3351ZM47.9252 30.3201C47.9252 27.0201 47.9252 23.7801 47.9252 20.5251C46.5902 20.5251 45.2852 20.5251 43.9652 20.5251C43.9652 23.7951 43.9652 27.0351 43.9652 30.3201C45.2852 30.3201 46.5902 30.3201 47.9252 30.3201ZM6.12023 8.96014C6.12023 11.9451 6.12023 14.8551 6.12023 17.7651C7.47023 17.7651 8.77523 17.7651 10.0502 17.7651C10.0502 14.8101 10.0502 11.8851 10.0502 8.96014C8.73023 8.96014 7.44023 8.96014 6.12023 8.96014ZM18.7352 12.8151C18.7352 14.4801 18.7352 16.1151 18.7352 17.7651C20.0702 17.7651 21.3602 17.7651 22.6652 17.7651C22.6652 16.0851 22.6652 14.4501 22.6652 12.8151C21.3452 12.8151 20.0552 12.8151 18.7352 12.8151Z" fill="#202020"/>
<path d="M13.8305 32.2849C15.9305 32.2849 18.0305 32.2849 20.1155 32.2849C21.2555 32.2849 21.8255 32.8249 21.8255 33.9499C21.8405 38.1799 21.8405 42.4099 21.8255 46.6399C21.8255 47.7949 21.2405 48.3499 20.0855 48.3499C15.8705 48.3499 11.6555 48.3499 7.45547 48.3499C6.31547 48.3499 5.73047 47.7649 5.73047 46.6099C5.73047 42.4249 5.73047 38.2249 5.73047 34.0399C5.73047 32.8399 6.30047 32.2849 7.47047 32.2849C9.60047 32.2849 11.7155 32.2849 13.8305 32.2849ZM20.1305 41.2099C18.2855 41.2099 16.4855 41.2099 14.6855 41.2099C14.6855 43.0549 14.6855 44.8549 14.6855 46.6549C16.5305 46.6549 18.3155 46.6549 20.1305 46.6549C20.1305 44.8249 20.1305 43.0249 20.1305 41.2099ZM20.1155 39.4699C20.1155 37.6249 20.1155 35.8099 20.1155 34.0099C18.2705 34.0099 16.4705 34.0099 14.6855 34.0099C14.6855 35.8549 14.6855 37.6549 14.6855 39.4699C16.5155 39.4699 18.2855 39.4699 20.1155 39.4699ZM7.47047 34.0099C7.47047 35.8399 7.47047 37.6399 7.47047 39.4549C9.31547 39.4549 11.1155 39.4549 12.9005 39.4549C12.9005 37.6099 12.9005 35.8099 12.9005 34.0099C11.0555 34.0099 9.27047 34.0099 7.47047 34.0099ZM12.9155 46.6549C12.9155 44.8099 12.9155 43.0249 12.9155 41.1949C11.0855 41.1949 9.28547 41.1949 7.45547 41.1949C7.45547 43.0249 7.45547 44.8249 7.45547 46.6549C9.28547 46.6549 11.0855 46.6549 12.9155 46.6549Z" fill="#202020"/>
<path d="M48.0453 10.67C47.5203 9.84501 47.0703 9.14001 46.6203 8.42001C46.2453 7.83501 46.3053 7.34001 46.7703 7.05501C47.2203 6.78501 47.6704 6.93501 48.0304 7.50501C48.7504 8.64501 49.4854 9.77001 50.2054 10.91C50.8054 11.855 50.5954 12.665 49.6054 13.22C48.4204 13.88 47.2054 14.525 46.0054 15.17C45.4504 15.47 44.9854 15.365 44.7304 14.93C44.4604 14.465 44.6404 14 45.2104 13.685C45.9753 13.265 46.7554 12.845 47.6554 12.35C46.6504 12.08 45.7654 11.855 44.8804 11.63C32.4904 8.43501 20.1304 5.24001 7.75535 2.03001C7.68035 2.01501 7.60535 2.00001 7.53035 1.98501C6.99035 1.82001 6.73535 1.40001 6.85535 0.935013C6.97535 0.470013 7.42535 0.230012 7.96535 0.365012C9.57035 0.770012 11.1904 1.20501 12.7954 1.61001C24.3754 4.61001 35.9403 7.59501 47.5203 10.595C47.6403 10.625 47.7753 10.625 48.0453 10.67Z" fill="#202020"/>
<path d="M13.8 29.165C11.685 29.165 9.57 29.165 7.455 29.165C6.33 29.165 5.745 28.595 5.73 27.485C5.715 26.585 5.715 25.685 5.73 24.785C5.745 23.705 6.33 23.105 7.395 23.105C11.64 23.105 15.885 23.105 20.13 23.105C21.21 23.105 21.795 23.675 21.81 24.77C21.825 25.685 21.825 26.6 21.81 27.515C21.795 28.61 21.21 29.165 20.115 29.165C18.03 29.165 15.915 29.165 13.8 29.165ZM20.13 24.83C15.885 24.83 11.685 24.83 7.485 24.83C7.485 25.73 7.485 26.6 7.485 27.44C11.73 27.44 15.93 27.44 20.13 27.44C20.13 26.54 20.13 25.685 20.13 24.83Z" fill="#202020"/>
<path d="M36.6898 49.9102C37.0198 50.1052 37.2748 50.2252 37.4698 50.3902C38.0998 50.9302 38.8048 51.2152 39.6298 51.0802C39.9148 51.0352 40.1998 50.8852 40.4248 50.7052C40.9048 50.3002 40.8598 49.7902 40.3348 49.4452C40.0048 49.2352 39.6298 49.1002 39.2698 48.9352C38.7748 48.7252 38.2648 48.5452 37.7698 48.3352C36.8698 47.9452 36.3148 47.2702 36.3298 46.2652C36.3448 45.2152 36.8698 44.4352 37.8148 44.0152C38.1898 43.8502 38.3548 43.6702 38.3398 43.2502C38.3248 42.6352 38.6548 42.2602 39.1648 42.2602C39.6898 42.2452 40.0198 42.6052 40.0048 43.2802C39.9898 43.6702 40.1398 43.8202 40.4998 43.9402C40.9348 44.0902 41.3548 44.3152 41.7448 44.5702C42.2248 44.8852 42.3148 45.3652 42.0448 45.7852C41.7748 46.1902 41.2948 46.2802 40.8148 45.9652C40.2298 45.5902 39.6298 45.3202 38.9248 45.4552C38.7298 45.4852 38.5198 45.5602 38.3548 45.6802C37.8598 46.0402 37.9048 46.5652 38.4598 46.8202C38.9098 47.0302 39.3898 47.1952 39.8548 47.3902C40.1848 47.5252 40.5148 47.6452 40.8298 47.7952C41.8198 48.3052 42.4798 49.0702 42.4198 50.2252C42.3598 51.4102 41.6548 52.1902 40.5748 52.5952C40.1548 52.7452 39.9748 52.8952 40.0048 53.3752C40.0348 53.9452 39.6748 54.2902 39.1798 54.2902C38.6998 54.2902 38.3248 53.9302 38.3548 53.3602C38.3848 52.8502 38.1748 52.7002 37.7398 52.5052C37.1698 52.2502 36.6448 51.8602 36.1798 51.4402C35.9998 51.2752 35.9548 50.8402 36.0298 50.5852C36.1048 50.3152 36.4348 50.1502 36.6898 49.9102Z" fill="#202020"/>
</svg>

<svg width="53" height="58" fill="none" xmlns="http://www.w3.org/2000/svg"><path d="M38.19 57.8c-.405-.09-.795-.165-1.2-.255-4.545-1.065-7.575-5.205-7.335-9.975.225-4.425 3.795-8.175 8.295-8.775 7.245-.945 12.84 6.3 10.08 13.05-.045.12-.105.24-.165.36-.255.48-.69.645-1.11.45-.45-.195-.585-.615-.42-1.14.225-.765.525-1.53.63-2.31.555-4.08-2.265-7.935-6.315-8.685-4.05-.75-8.04 1.755-9.075 5.7a7.858 7.858 0 0 0 3.195 8.52c2.79 1.875 6.375 1.8 9.09-.195.09-.06.18-.135.27-.195.45-.3.915-.255 1.215.105.3.375.225.885-.195 1.23-1.32 1.065-2.835 1.71-4.515 1.995-.15.03-.285.075-.42.105-.69.015-1.35.015-2.025.015Z" fill="#202020"/><path d="M4.395 17.81V8.96c0-1.17.54-1.695 1.725-1.695h4.05c1.08 0 1.635.54 1.635 1.62v8.895h5.205c.015-.195.03-.39.03-.585v-4.38c0-1.185.525-1.71 1.725-1.71h3.93c1.215 0 1.725.51 1.725 1.755V17.765c.15.015.255.045.36.045 1.155.075 1.86.795 1.86 1.95v10.545h3.015v-13.59c0-1.275.495-1.755 1.77-1.77h3.825c1.305 0 1.815.51 1.815 1.8v13.56h5.205V20.57c0-1.26.51-1.755 1.77-1.755h4.05c1.035 0 1.575.555 1.59 1.605v9.945h1.89c.225 0 .45 0 .675.015.45.06.705.33.72.78.015.45-.225.75-.66.84-.21.045-.45.03-.675.03H26.67V51.41c0 1.575-.66 2.25-2.25 2.25H3.255c-1.56 0-2.235-.675-2.235-2.205V30.68c0-.165 0-.345.015-.51.06-.42.315-.675.735-.705.45-.03.765.18.87.615.06.24.045.48.045.72v20.43c0 .735 0 .735.72.735H24.24c.72 0 .72 0 .72-.735V20.18c0-.72 0-.72-.735-.72H3.45c-.765 0-.765 0-.765.75v5.73c0 .225 0 .45-.075.66-.12.42-.45.6-.87.555-.39-.03-.66-.27-.72-.66-.03-.165-.03-.33-.03-.51v-6.06c0-1.44.705-2.145 2.13-2.145.39.03.795.03 1.275.03Zm30.9 12.525V16.67H31.35v13.665h3.945Zm12.63-.015v-9.795h-3.96v9.795h3.96ZM6.12 8.96v8.805h3.93V8.96H6.12Zm12.615 3.855v4.95h3.93v-4.95h-3.93Z" fill="#202020"/><path d="M13.83 32.285h6.286c1.14 0 1.71.54 1.71 1.665.014 4.23.014 8.46 0 12.69 0 1.155-.585 1.71-1.74 1.71H7.455c-1.14 0-1.726-.585-1.726-1.74V34.04c0-1.2.57-1.755 1.74-1.755h6.36Zm6.3 8.925h-5.444v5.445h5.445V41.21Zm-.014-1.74v-5.46h-5.43v5.46h5.43ZM7.47 34.01v5.445h5.43V34.01H7.47Zm5.446 12.645v-5.46h-5.46v5.46h5.46ZM48.045 10.67c-.525-.825-.975-1.53-1.425-2.25-.375-.585-.315-1.08.15-1.365.45-.27.9-.12 1.26.45.72 1.14 1.455 2.265 2.175 3.405.6.945.39 1.755-.6 2.31-1.185.66-2.4 1.305-3.6 1.95-.555.3-1.02.195-1.275-.24-.27-.465-.09-.93.48-1.245.765-.42 1.545-.84 2.445-1.335-1.005-.27-1.89-.495-2.775-.72-12.39-3.195-24.75-6.39-37.125-9.6l-.225-.045c-.54-.165-.795-.585-.675-1.05.12-.465.57-.705 1.11-.57 1.605.405 3.225.84 4.83 1.245 11.58 3 23.145 5.985 34.725 8.985.12.03.255.03.525.075ZM13.8 29.165H7.455c-1.125 0-1.71-.57-1.725-1.68-.015-.9-.015-1.8 0-2.7.015-1.08.6-1.68 1.665-1.68H20.13c1.08 0 1.665.57 1.68 1.665.015.915.015 1.83 0 2.745-.015 1.095-.6 1.65-1.695 1.65H13.8Zm6.33-4.335H7.485v2.61H20.13v-2.61ZM36.69 49.91c.33.195.585.315.78.48.63.54 1.335.825 2.16.69.285-.045.57-.195.795-.375.48-.405.435-.915-.09-1.26-.33-.21-.705-.345-1.065-.51-.495-.21-1.005-.39-1.5-.6-.9-.39-1.455-1.065-1.44-2.07.015-1.05.54-1.83 1.485-2.25.375-.165.54-.345.525-.765-.015-.615.315-.99.825-.99.525-.015.855.345.84 1.02-.015.39.135.54.495.66.435.15.855.375 1.245.63.48.315.57.795.3 1.215-.27.405-.75.495-1.23.18-.585-.375-1.185-.645-1.89-.51a1.34 1.34 0 0 0-.57.225c-.495.36-.45.885.105 1.14.45.21.93.375 1.395.57.33.135.66.255.975.405.99.51 1.65 1.275 1.59 2.43-.06 1.185-.765 1.965-1.845 2.37-.42.15-.6.3-.57.78.03.57-.33.915-.825.915-.48 0-.855-.36-.825-.93.03-.51-.18-.66-.615-.855-.57-.255-1.095-.645-1.56-1.065-.18-.165-.225-.6-.15-.855.075-.27.405-.435.66-.675Z" fill="#202020"/></svg>
